images/6604277.svg

<?xml version="1.0" encoding="UTF-8"?>
<svg xmlns="http://www.w3.org/2000/svg" xmlns:xlink="http://www.w3.org/1999/xlink" width="300pt" height="300pt" viewBox="0 0 300 300" version="1.1">
<defs>
<g>
<symbol overflow="visible" id="glyph0-0">
<path style="stroke:none;" d="M 0.796875 2.828125 L 0.796875 -11.28125 L 8.796875 -11.28125 L 8.796875 2.828125 Z M 1.703125 1.9375 L 7.90625 1.9375 L 7.90625 -10.390625 L 1.703125 -10.390625 Z M 1.703125 1.9375 "/>
</symbol>
<symbol overflow="visible" id="glyph0-1">
<path style="stroke:none;" d="M 1.578125 -11.671875 L 3.703125 -11.671875 L 8.875 -1.90625 L 8.875 -11.671875 L 10.40625 -11.671875 L 10.40625 0 L 8.28125 0 L 3.109375 -9.765625 L 3.109375 0 L 1.578125 0 Z M 1.578125 -11.671875 "/>
</symbol>
<symbol overflow="visible" id="glyph0-2">
<path style="stroke:none;" d="M 1.578125 -11.671875 L 3.15625 -11.671875 L 3.15625 -6.890625 L 8.890625 -6.890625 L 8.890625 -11.671875 L 10.46875 -11.671875 L 10.46875 0 L 8.890625 0 L 8.890625 -5.5625 L 3.15625 -5.5625 L 3.15625 0 L 1.578125 0 Z M 1.578125 -11.671875 "/>
</symbol>
<symbol overflow="visible" id="glyph0-3">
<path style="stroke:none;" d="M 6.3125 -10.59375 C 5.164062 -10.59375 4.253906 -10.164062 3.578125 -9.3125 C 2.898438 -8.457031 2.5625 -7.296875 2.5625 -5.828125 C 2.5625 -4.359375 2.898438 -3.195312 3.578125 -2.34375 C 4.253906 -1.488281 5.164062 -1.0625 6.3125 -1.0625 C 7.457031 -1.0625 8.363281 -1.488281 9.03125 -2.34375 C 9.695312 -3.195312 10.03125 -4.359375 10.03125 -5.828125 C 10.03125 -7.296875 9.695312 -8.457031 9.03125 -9.3125 C 8.363281 -10.164062 7.457031 -10.59375 6.3125 -10.59375 Z M 6.3125 -11.875 C 7.945312 -11.875 9.253906 -11.328125 10.234375 -10.234375 C 11.210938 -9.140625 11.703125 -7.671875 11.703125 -5.828125 C 11.703125 -3.984375 11.210938 -2.507812 10.234375 -1.40625 C 9.253906 -0.3125 7.945312 0.234375 6.3125 0.234375 C 4.664062 0.234375 3.351562 -0.3125 2.375 -1.40625 C 1.394531 -2.507812 0.90625 -3.984375 0.90625 -5.828125 C 0.90625 -7.671875 1.394531 -9.140625 2.375 -10.234375 C 3.351562 -11.328125 4.664062 -11.875 6.3125 -11.875 Z M 6.3125 -11.875 "/>
</symbol>
</g>
</defs>
<g id="surface36645">
<rect x="0" y="0" width="300" height="300" style="fill:rgb(100%,100%,100%);fill-opacity:1;stroke:none;"/>
<path style="fill:none;stroke-width:1.2;stroke-linecap:butt;stroke-linejoin:miter;stroke:rgb(0%,0%,0%);stroke-opacity:1;stroke-miterlimit:10;" d="M 203.722656 68.875 L 201.960938 87.921875 "/>
<path style="fill:none;stroke-width:1.2;stroke-linecap:butt;stroke-linejoin:miter;stroke:rgb(0%,0%,100%);stroke-opacity:1;stroke-miterlimit:10;" d="M 201.960938 87.921875 L 200.203125 106.964844 "/>
<path style="fill:none;stroke-width:1.2;stroke-linecap:butt;stroke-linejoin:miter;stroke:rgb(0%,0%,100%);stroke-opacity:1;stroke-miterlimit:10;" d="M 200.203125 106.964844 L 215.8125 118.011719 "/>
<path style="fill:none;stroke-width:1.2;stroke-linecap:butt;stroke-linejoin:miter;stroke:rgb(0%,0%,0%);stroke-opacity:1;stroke-miterlimit:10;" d="M 215.8125 118.011719 L 231.425781 129.058594 "/>
<path style="fill:none;stroke-width:1.2;stroke-linecap:butt;stroke-linejoin:miter;stroke:rgb(0%,0%,0%);stroke-opacity:1;stroke-miterlimit:10;" d="M 165.457031 122.957031 L 182.828125 114.960938 "/>
<path style="fill:none;stroke-width:1.2;stroke-linecap:butt;stroke-linejoin:miter;stroke:rgb(0%,0%,100%);stroke-opacity:1;stroke-miterlimit:10;" d="M 182.828125 114.960938 L 200.203125 106.964844 "/>
<path style=" stroke:none;fill-rule:nonzero;fill:rgb(100%,100%,100%);fill-opacity:1;" d="M 194.203125 97.464844 L 206.203125 97.464844 L 206.203125 116.464844 L 194.203125 116.464844 Z M 194.203125 97.464844 "/>
<g style="fill:rgb(0%,0%,100%);fill-opacity:1;">
  <use xlink:href="#glyph0-1" x="194.203125" y="112.316406"/>
</g>
<path style="fill:none;stroke-width:1.2;stroke-linecap:butt;stroke-linejoin:miter;stroke:rgb(0%,0%,0%);stroke-opacity:1;stroke-miterlimit:10;" d="M 231.425781 129.058594 L 227.90625 167.144531 "/>
<path style="fill:none;stroke-width:1.2;stroke-linecap:butt;stroke-linejoin:miter;stroke:rgb(0%,0%,0%);stroke-opacity:1;stroke-miterlimit:10;" d="M 227.90625 167.144531 L 193.160156 183.140625 "/>
<path style="fill:none;stroke-width:1;stroke-linecap:butt;stroke-linejoin:miter;stroke:rgb(0%,0%,0%);stroke-opacity:1;stroke-miterlimit:10;" d="M 227.90625 167.144531 L 227.90625 167.144531 M 230.015625 169.277344 L 230.617188 168.425781 M 232.125 171.410156 L 233.332031 169.707031 M 234.238281 173.539062 L 236.042969 170.988281 M 236.347656 175.671875 L 238.757812 172.269531 M 238.457031 177.804688 L 241.46875 173.550781 M 240.570312 179.9375 L 244.183594 174.828125 M 242.679688 182.070312 L 246.894531 176.109375 M 244.789062 184.199219 L 249.609375 177.390625 M 246.898438 186.332031 L 252.320312 178.671875 M 249.011719 188.464844 L 255.035156 179.953125 M 251.121094 190.597656 L 257.746094 181.234375 M 253.230469 192.730469 L 260.460938 182.515625 M 255.230469 194.746094 L 263.027344 183.726562 "/>
<path style="fill:none;stroke-width:1.2;stroke-linecap:butt;stroke-linejoin:miter;stroke:rgb(0%,0%,0%);stroke-opacity:1;stroke-miterlimit:10;" d="M 193.160156 183.140625 L 161.933594 161.046875 "/>
<path style="fill:none;stroke-width:1.2;stroke-linecap:butt;stroke-linejoin:miter;stroke:rgb(0%,0%,0%);stroke-opacity:1;stroke-miterlimit:10;" d="M 195.234375 173.582031 L 170.257812 155.910156 "/>
<path style="fill:none;stroke-width:1.2;stroke-linecap:butt;stroke-linejoin:miter;stroke:rgb(0%,0%,0%);stroke-opacity:1;stroke-miterlimit:10;" d="M 161.933594 161.046875 L 165.457031 122.957031 "/>
<path style="fill:none;stroke-width:1.2;stroke-linecap:butt;stroke-linejoin:miter;stroke:rgb(0%,0%,0%);stroke-opacity:1;stroke-miterlimit:10;" d="M 127.191406 177.042969 L 161.933594 161.046875 "/>
<path style="fill:none;stroke-width:1;stroke-linecap:butt;stroke-linejoin:miter;stroke:rgb(0%,0%,0%);stroke-opacity:1;stroke-miterlimit:10;" d="M 165.457031 122.957031 L 165.457031 122.957031 M 163.347656 120.828125 L 162.742188 121.679688 M 161.234375 118.695312 L 160.03125 120.398438 M 159.125 116.5625 L 157.316406 119.117188 M 157.015625 114.429688 L 154.605469 117.835938 M 154.902344 112.296875 L 151.890625 116.554688 M 152.792969 110.167969 L 149.179688 115.273438 M 150.683594 108.035156 L 146.464844 113.992188 M 148.570312 105.902344 L 143.753906 112.710938 M 146.460938 103.769531 L 141.039062 111.429688 M 144.351562 101.640625 L 138.328125 110.152344 M 142.238281 99.507812 L 135.613281 108.871094 M 140.128906 97.375 L 132.902344 107.589844 M 138.128906 95.355469 L 130.332031 106.375 "/>
<path style="fill:none;stroke-width:1.2;stroke-linecap:butt;stroke-linejoin:miter;stroke:rgb(0%,0%,0%);stroke-opacity:1;stroke-miterlimit:10;" d="M 134.230469 100.867188 L 99.488281 116.859375 "/>
<path style="fill:none;stroke-width:1.2;stroke-linecap:butt;stroke-linejoin:miter;stroke:rgb(0%,0%,0%);stroke-opacity:1;stroke-miterlimit:10;" d="M 99.488281 116.859375 L 62.964844 105.496094 "/>
<path style="fill:none;stroke-width:1.2;stroke-linecap:butt;stroke-linejoin:miter;stroke:rgb(0%,0%,0%);stroke-opacity:1;stroke-miterlimit:10;" d="M 93.160156 124.316406 L 63.941406 115.226562 "/>
<path style="fill:none;stroke-width:1.2;stroke-linecap:butt;stroke-linejoin:miter;stroke:rgb(0%,0%,0%);stroke-opacity:1;stroke-miterlimit:10;" d="M 95.964844 154.949219 L 99.488281 116.859375 "/>
<path style="fill:none;stroke-width:1.2;stroke-linecap:butt;stroke-linejoin:miter;stroke:rgb(0%,0%,0%);stroke-opacity:1;stroke-miterlimit:10;" d="M 62.964844 105.496094 L 51.917969 121.109375 "/>
<path style="fill:none;stroke-width:1.2;stroke-linecap:butt;stroke-linejoin:miter;stroke:rgb(0%,0%,100%);stroke-opacity:1;stroke-miterlimit:10;" d="M 51.917969 121.109375 L 40.871094 136.722656 "/>
<path style="fill:none;stroke-width:1.2;stroke-linecap:butt;stroke-linejoin:miter;stroke:rgb(0%,0%,100%);stroke-opacity:1;stroke-miterlimit:10;" d="M 40.871094 136.722656 L 51.046875 153.832031 "/>
<path style="fill:none;stroke-width:1.2;stroke-linecap:butt;stroke-linejoin:miter;stroke:rgb(0%,0%,0%);stroke-opacity:1;stroke-miterlimit:10;" d="M 51.046875 153.832031 L 61.21875 170.941406 "/>
<path style=" stroke:none;fill-rule:nonzero;fill:rgb(100%,100%,100%);fill-opacity:1;" d="M 28.871094 127.222656 L 52.871094 127.222656 L 52.871094 146.222656 L 28.871094 146.222656 Z M 28.871094 127.222656 "/>
<g style="fill:rgb(0%,0%,100%);fill-opacity:1;">
  <use xlink:href="#glyph0-1" x="28.871094" y="142.074219"/>
  <use xlink:href="#glyph0-2" x="40.839844" y="142.074219"/>
</g>
<path style="fill:none;stroke-width:1.2;stroke-linecap:butt;stroke-linejoin:miter;stroke:rgb(0%,0%,0%);stroke-opacity:1;stroke-miterlimit:10;" d="M 61.21875 170.941406 L 57.699219 209.03125 "/>
<path style="fill:none;stroke-width:1.2;stroke-linecap:butt;stroke-linejoin:miter;stroke:rgb(0%,0%,0%);stroke-opacity:1;stroke-miterlimit:10;" d="M 69.832031 175.578125 L 67.011719 206.050781 "/>
<path style="fill:none;stroke-width:1.2;stroke-linecap:butt;stroke-linejoin:miter;stroke:rgb(0%,0%,0%);stroke-opacity:1;stroke-miterlimit:10;" d="M 95.964844 154.949219 L 61.21875 170.941406 "/>
<path style="fill:none;stroke-width:1.2;stroke-linecap:butt;stroke-linejoin:miter;stroke:rgb(0%,0%,0%);stroke-opacity:1;stroke-miterlimit:10;" d="M 57.699219 209.03125 L 88.925781 231.125 "/>
<path style="fill:none;stroke-width:1.2;stroke-linecap:butt;stroke-linejoin:miter;stroke:rgb(0%,0%,0%);stroke-opacity:1;stroke-miterlimit:10;" d="M 88.925781 231.125 L 123.667969 215.128906 "/>
<path style="fill:none;stroke-width:1.2;stroke-linecap:butt;stroke-linejoin:miter;stroke:rgb(0%,0%,0%);stroke-opacity:1;stroke-miterlimit:10;" d="M 88.636719 221.347656 L 116.429688 208.554688 "/>
<path style="fill:none;stroke-width:1.2;stroke-linecap:butt;stroke-linejoin:miter;stroke:rgb(0%,0%,0%);stroke-opacity:1;stroke-miterlimit:10;" d="M 123.667969 215.128906 L 127.191406 177.042969 "/>
<path style="fill:none;stroke-width:1.2;stroke-linecap:butt;stroke-linejoin:miter;stroke:rgb(0%,0%,0%);stroke-opacity:1;stroke-miterlimit:10;" d="M 127.191406 177.042969 L 95.964844 154.949219 "/>
<path style="fill:none;stroke-width:1.2;stroke-linecap:butt;stroke-linejoin:miter;stroke:rgb(0%,0%,0%);stroke-opacity:1;stroke-miterlimit:10;" d="M 129.265625 167.484375 L 104.285156 149.808594 "/>
<path style="fill:none;stroke-width:1.2;stroke-linecap:butt;stroke-linejoin:miter;stroke:rgb(0%,0%,0%);stroke-opacity:1;stroke-miterlimit:10;" d="M 259.128906 189.238281 L 257.367188 208.28125 "/>
<path style="fill:none;stroke-width:1.2;stroke-linecap:butt;stroke-linejoin:miter;stroke:rgb(100%,0%,0%);stroke-opacity:1;stroke-miterlimit:10;" d="M 257.367188 208.28125 L 255.609375 227.324219 "/>
<path style=" stroke:none;fill-rule:nonzero;fill:rgb(100%,100%,100%);fill-opacity:1;" d="M 243.609375 217.824219 L 268.609375 217.824219 L 268.609375 236.824219 L 243.609375 236.824219 Z M 243.609375 217.824219 "/>
<g style="fill:rgb(100%,0%,0%);fill-opacity:1;">
  <use xlink:href="#glyph0-2" x="243.609375" y="232.675781"/>
  <use xlink:href="#glyph0-3" x="255.640625" y="232.675781"/>
</g>
</g>
</svg>

<svg xmlns="http://www.w3.org/2000/svg" xmlns:xlink="http://www.w3.org/1999/xlink" width="300pt" height="300pt" viewBox="0 0 300 300"><defs><symbol overflow="visible"><path d="M.797 2.828v-14.11h8V2.83zm.906-.89h6.203v-12.33H1.703zm0 0"/></symbol><symbol overflow="visible" id="a"><path d="M1.578-11.672h2.125l5.172 9.766v-9.766h1.53V0H8.282L3.11-9.766V0H1.577zm0 0"/></symbol><symbol overflow="visible" id="b"><path d="M1.578-11.672h1.578v4.78H8.89v-4.78h1.58V0H8.89v-5.563H3.157V0H1.578zm0 0"/></symbol><symbol overflow="visible" id="c"><path d="M6.313-10.594c-1.15 0-2.06.43-2.735 1.28-.68.857-1.015 2.017-1.015 3.486 0 1.47.335 2.633 1.015 3.484.676.856 1.586 1.28 2.735 1.28 1.144.002 2.05-.424 2.718-1.28.665-.85 1-2.015 1-3.484 0-1.47-.335-2.63-1-3.484-.667-.852-1.573-1.282-2.717-1.282zm0-1.28c1.632 0 2.94.546 3.92 1.64.978 1.093 1.47 2.562 1.47 4.406 0 1.844-.492 3.32-1.47 4.422-.98 1.093-2.288 1.64-3.92 1.64-1.65 0-2.96-.546-3.938-1.64-.98-1.102-1.47-2.578-1.47-4.422 0-1.844.49-3.313 1.47-4.406.977-1.094 2.29-1.64 3.938-1.64zm0 0"/></symbol></defs><g><path fill="#fff" d="M0 0h300v300H0z"/><path d="M203.723 68.875l-1.762 19.047" stroke-width="1.2" stroke="#000" stroke-miterlimit="10" fill="none"/><path d="M201.96 87.922l-1.757 19.043M200.203 106.965l15.61 11.047" stroke-width="1.2" stroke="#00f" stroke-miterlimit="10" fill="none"/><path d="M215.813 118.012l15.613 11.047M165.457 122.957l17.37-7.996" stroke-width="1.2" stroke="#000" stroke-miterlimit="10" fill="none"/><path d="M182.828 114.96l17.375-7.995" stroke-width="1.2" stroke="#00f" stroke-miterlimit="10" fill="none"/><path d="M194.203 97.465h12v19h-12zm0 0" fill="#fff"/><use xlink:href="#a" x="194.203" y="112.316" fill="#00f"/><path d="M231.426 129.06l-3.52 38.085M227.906 167.145L193.16 183.14" stroke-width="1.2" stroke="#000" stroke-miterlimit="10" fill="none"/><path d="M227.906 167.145m2.11 2.132l.6-.85m1.51 2.983l1.206-1.703m.906 3.832l1.805-2.552m.305 4.684l2.41-3.402m-.3 5.535l3.01-4.254m-.898 6.387l3.614-5.11m-1.504 7.243l4.215-5.96m-2.106 8.09l4.82-6.81m-2.712 8.942l5.422-7.66m-3.308 9.793l6.023-8.512m-3.914 10.645l6.626-9.364m-4.516 11.496l7.23-10.214m-5.23 12.23l7.797-11.02" stroke="#000" stroke-miterlimit="10" fill="none"/><path d="M193.16 183.14l-31.226-22.093M195.234 173.582l-24.976-17.672M161.934 161.047l3.523-38.09M127.19 177.043l34.744-15.996" stroke-width="1.2" stroke="#000" stroke-miterlimit="10" fill="none"/><path d="M165.457 122.957m-2.11-2.13l-.605.853m-1.508-2.985l-1.203 1.703m-.905-3.835l-1.81 2.554m-.3-4.687l-2.41 3.406m.297-5.54l-3.01 4.26m.9-6.388l-3.612 5.105m1.504-7.238l-4.22 5.957m2.106-8.09l-4.816 6.81m2.707-8.942l-5.42 7.66m3.312-9.79l-6.024 8.512m3.91-10.644l-6.625 9.363m4.516-11.495L132.9 107.59m5.227-12.235l-7.798 11.02" stroke="#000" stroke-miterlimit="10" fill="none"/><path d="M134.23 100.867L99.488 116.86M99.488 116.86l-36.523-11.364M93.16 124.316l-29.22-9.09M95.965 154.95l3.523-38.09M62.965 105.496L51.918 121.11" stroke-width="1.2" stroke="#000" stroke-miterlimit="10" fill="none"/><path d="M51.918 121.11L40.87 136.722M40.87 136.723l10.177 17.11" stroke-width="1.2" stroke="#00f" stroke-miterlimit="10" fill="none"/><path d="M51.047 153.832l10.172 17.11" stroke-width="1.2" stroke="#000" stroke-miterlimit="10" fill="none"/><path d="M28.87 127.223h24v19h-24zm0 0" fill="#fff"/><g fill="#00f"><use xlink:href="#a" x="28.871" y="142.074"/><use xlink:href="#b" x="40.84" y="142.074"/></g><path d="M61.22 170.94l-3.52 38.09M69.832 175.578l-2.82 30.473M95.965 154.95L61.22 170.94M57.7 209.03l31.226 22.095M88.926 231.125l34.742-15.996M88.637 221.348l27.793-12.793M123.668 215.13l3.523-38.087M127.19 177.043L95.966 154.95M129.266 167.484l-24.98-17.675M259.13 189.238l-1.763 19.043" stroke-width="1.2" stroke="#000" stroke-miterlimit="10" fill="none"/><path d="M257.367 208.28l-1.758 19.044" stroke-width="1.2" stroke="#f00" stroke-miterlimit="10" fill="none"/><path d="M243.61 217.824h25v19h-25zm0 0" fill="#fff"/><g fill="#f00"><use xlink:href="#b" x="243.609" y="232.676"/><use xlink:href="#c" x="255.641" y="232.676"/></g></g></svg>
